X: 93
T: No_182_Old_Man's_Dance_Song_(a).krn
N: Derived from No_182_Old_Man's_Dance_Song_(a).krn
%%abc-version 2.0
%%abcx-abcm2ps-target-version 5.9.1 (29 Sep 2008)
%%abc-creator hum2abc beta
%%abcx-conversion-date 2019/03/15 08:38:45
%%humdrum-veritas 869492234
%%humdrum-veritas-data 109534260
%%linebreak <none>
%%barnumbers 0
L: 1/4
M: 2/4
K: Eb clef=bass
[K:clef=bass][M:2/4]G,B, ]|:  
(B,//G,3//)G, | 
A,2 | 
zG, | 
A,//A,3//G, | 
E,E, ||  
[M:3/4]A,//A,3// G,/G,/E, | 
G,zG, ||  
[M:2/4]A,//A,3//G, ||  
[M:3/4]E,E,B, :|]  
[M:2/4]E,E, |]  



